theme-map4trip/src/main/assets/themes/mapsforgeV3/map4trip/symbols/cave_entrance.svg

<svg enable-background="new 0 0 16 16" height="16" viewBox="0 0 16 16" width="16" xmlns="http://www.w3.org/2000/svg"><path d="m11.8 11.9v-1.3c-.1-1.2-.5-2.3-1.3-3.1-.4-.5-1.1-.8-1.9-.8-.2 0-.4 0-.5 0-1.2.2-2.1.7-2.2 3.9v1.2h-5.4v-2.7h1.4c.7-3.7 3.6-5.4 6.1-5.4s5.4 1.7 6.1 5.4h1.4v2.8z"/><path d="m8 4.2c2.6 0 5.1 1.8 5.7 5.4h1.3v1.8h-2.6v-.8c-.1-1.4-.7-2.7-1.4-3.5-.6-.6-1.4-.9-2.3-.9-.2 0-.4 0-.6.1-1.7.3-2.5 1.2-2.6 4.4v.7h-4.5v-1.8h1.3c.6-3.5 3.1-5.4 5.7-5.4m0-1c-2.6 0-5.6 1.7-6.5 5.4h-.5-1v1 1.8 1h1 4.4 1v-1-.7c0-3.1.9-3.2 1.8-3.4h.4c.6 0 1.2.2 1.5.6.7.7 1.1 1.7 1.2 2.8v.8 1h1 2.7 1v-1-1.9-1h-1-.5c-.9-3.7-3.9-5.4-6.5-5.4z" fill="#f4f4f4"/></svg>

<?xml version="1.0" encoding="utf-8"?>
<!-- Generator: Adobe Illustrator 14.0.0, SVG Export Plug-In . SVG Version: 6.00 Build 43363)  -->
<!DOCTYPE svg PUBLIC "-//W3C//DTD SVG 1.1//EN" "http://www.w3.org/Graphics/SVG/1.1/DTD/svg11.dtd">
<svg version="1.1" id="symbol-cave-entrance" xmlns:svg="http://www.w3.org/2000/svg"
	 xmlns="http://www.w3.org/2000/svg" xmlns:xlink="http://www.w3.org/1999/xlink" x="0px" y="0px" width="16px" height="16px"
	 viewBox="0 0 16 16" enable-background="new 0 0 16 16" xml:space="preserve">
<g>
	<path d="M11.8,11.9v-1.3c-0.1-1.2-0.5-2.3-1.3-3.1C10.1,7,9.4,6.7,8.6,6.7c-0.2,0-0.4,0-0.5,0C6.9,6.9,6,7.4,5.9,10.6v1.2H0.5V9.1
		h1.4C2.6,5.4,5.5,3.7,8,3.7s5.4,1.7,6.1,5.4h1.4v2.8H11.8z"/>
	<path fill="#F4F4F4" d="M8,4.2c2.6,0,5.1,1.8,5.7,5.4H15v1.8h-2.6v-0.8c-0.1-1.4-0.7-2.7-1.4-3.5c-0.6-0.6-1.4-0.9-2.3-0.9
		c-0.2,0-0.4,0-0.6,0.1c-1.7,0.3-2.5,1.2-2.6,4.4v0.7H1V9.6h1.3C2.9,6.1,5.4,4.2,8,4.2 M8,3.2c-2.6,0-5.6,1.7-6.5,5.4H1H0v1v1.8v1h1
		h4.4h1v-1v-0.7c0-3.1,0.9-3.2,1.8-3.4c0.1,0,0.3,0,0.4,0c0.6,0,1.2,0.2,1.5,0.6c0.7,0.7,1.1,1.7,1.2,2.8v0.8v1h1H15h1v-1V9.6v-1h-1
		h-0.5C13.6,4.9,10.6,3.2,8,3.2L8,3.2z"/>
</g>
</svg>
